X: 16425
T: Hachi
R: jig
M: 6/8
K: Eminor
EFG EFG|FGA FGA|cBA edc|B6|
A^GA cBA|GFG BAG|BcB AGF|E6:|
e ^d e gfe|d^cd fed|cBc edc|B6|
AcA FGA|GBG EFG|1 B^AB B3|^c3^d3:|2 FAG FE_E|E6||

